X:1540
T:the Spainish Spy
A:Wyresdale, Lancashire
B:E and J Winder, 1835-41
L:1/16
M:2/4
O:England
Z:Richard Robinson 
%%TUNEURL: http://www.leeds.ac.uk/music/Info/RRTuneBk/gettune/00001244.html
%%ID:00001244
K:A
e2 | A3A (3ABc BA | BABc B2d2 | A3A (3ABc BA | E2A2A2 ::
e2 | ABcd efec | afec afec | ABcd efed | BABc B2
d2 | ABcd efec | afec afec | F4 E2AB | c2A2A2 :|
